src/assets/img/icons/duotone-icons/Communication/Add-user.svg

<?xml version="1.0" encoding="UTF-8"?>
<svg width="24px" height="24px" viewBox="0 0 24 24" version="1.1" xmlns="http://www.w3.org/2000/svg" xmlns:xlink="http://www.w3.org/1999/xlink">
    <!-- Generator: Sketch 52.2 (67145) - http://www.bohemiancoding.com/sketch -->
    <title>Stockholm-icons / Communication / Add-user</title>
    <desc>Created with Sketch.</desc>
    <g id="Stockholm-icons-/-Communication-/-Add-user" stroke="none" stroke-width="1" fill="none" fill-rule="evenodd">
        <polygon id="Shape" points="0 0 24 0 24 24 0 24"></polygon>
        <path d="M18,8 L16,8 C15.4477153,8 15,7.55228475 15,7 C15,6.44771525 15.4477153,6 16,6 L18,6 L18,4 C18,3.44771525 18.4477153,3 19,3 C19.5522847,3 20,3.44771525 20,4 L20,6 L22,6 C22.5522847,6 23,6.44771525 23,7 C23,7.55228475 22.5522847,8 22,8 L20,8 L20,10 C20,10.5522847 19.5522847,11 19,11 C18.4477153,11 18,10.5522847 18,10 L18,8 Z M9,11 C6.790861,11 5,9.209139 5,7 C5,4.790861 6.790861,3 9,3 C11.209139,3 13,4.790861 13,7 C13,9.209139 11.209139,11 9,11 Z" id="Combined-Shape" fill="#335EEA" opacity="0.3"></path>
        <path d="M0.00065168429,20.1992055 C0.388258525,15.4265159 4.26191235,13 8.98334134,13 C13.7712164,13 17.7048837,15.2931929 17.9979143,20.2 C18.0095879,20.3954741 17.9979143,21 17.2466999,21 C13.541124,21 8.03472472,21 0.727502227,21 C0.476712155,21 -0.0204617505,20.45918 0.00065168429,20.1992055 Z" id="Mask-Copy" fill="#335EEA"></path>
    </g>
</svg>

<svg width="24" height="24" viewBox="0 0 24 24" xmlns="http://www.w3.org/2000/svg"><g fill="none" fill-rule="evenodd"><path d="M0 0h24v24H0z"/><path d="M18 8h-2a1 1 0 010-2h2V4a1 1 0 012 0v2h2a1 1 0 010 2h-2v2a1 1 0 01-2 0V8zm-9 3a4 4 0 110-8 4 4 0 010 8z" fill="#335EEA" opacity=".3"/><path d="M0 20.2C.389 15.426 4.263 13 8.984 13c4.788 0 8.722 2.293 9.015 7.2.012.195 0 .8-.751.8H.727c-.25 0-.747-.54-.726-.8z" fill="#335EEA"/></g></svg>
